X:25
T:Hardiman the Fiddler
R:slip jig
D:Paul O'Shaughnessy & Paul McGrattan: Within a Mile from Dublin
Z:id:hn-slipjig-25
M:9/8
K:Dmix
~A2G FDE ~F2G | ~A3 AGA cAG | ~A2G FDE ~F2G | Add ded cAG :|
|: Add d2e ~f3 | Add ded cAG |1 Add d2e ~f2g | agf ged cAG :|2 dcA d2e f2g | agf ged cAG || 
P:Donegal version
|: A2G FDE F2G | A2G E2d cAG | A2G FDE FEF | Ddd efd cAG :|
|: Add dcA fAg | Add dfd cAG | Add dcA fef | gag fed cAG :|

